X: 1
T: Ievan Polkka
R: Polka
M: 2/4
L: 1/8
K: Bmin
|: FB Bc | dB Bd | cA Ac | d/c/B/A/ B2 |
FB Bc | dB B2 | ef/e/ dc | B2 B2 :|
|:fd df | ec cd | ef/e/ dc | Bc de |
fd df | ec cd | ef/e/ dc | B2 B2 :| 
